contributed-vectors/oxxo.svg

<?xml version="1.0" encoding="UTF-8" standalone="no"?>
<svg
   xmlns:dc="http://purl.org/dc/elements/1.1/"
   xmlns:cc="http://creativecommons.org/ns#"
   xmlns:rdf="http://www.w3.org/1999/02/22-rdf-syntax-ns#"
   xmlns:svg="http://www.w3.org/2000/svg"
   xmlns="http://www.w3.org/2000/svg"
   xmlns:sodipodi="http://sodipodi.sourceforge.net/DTD/sodipodi-0.dtd"
   xmlns:inkscape="http://www.inkscape.org/namespaces/inkscape"
   viewBox="0 0 192 192"
   version="1.1"
   id="svg16"
   sodipodi:docname="oxxo.svg"
   inkscape:version="0.92.4 (5da689c313, 2019-01-14)">
  <metadata
     id="metadata20">
    <rdf:RDF>
      <cc:Work
         rdf:about="">
        <dc:format>image/svg+xml</dc:format>
        <dc:type
           rdf:resource="http://purl.org/dc/dcmitype/StillImage" />
        <dc:title></dc:title>
      </cc:Work>
    </rdf:RDF>
  </metadata>
  <sodipodi:namedview
     pagecolor="#ffffff"
     bordercolor="#666666"
     borderopacity="1"
     objecttolerance="10"
     gridtolerance="10"
     guidetolerance="10"
     inkscape:pageopacity="0"
     inkscape:pageshadow="2"
     inkscape:window-width="1920"
     inkscape:window-height="1017"
     id="namedview18"
     showgrid="true"
     inkscape:zoom="3.4766083"
     inkscape:cx="110.7025"
     inkscape:cy="105.18043"
     inkscape:window-x="-8"
     inkscape:window-y="-8"
     inkscape:window-maximized="1"
     inkscape:current-layer="svg16"
     inkscape:snap-global="false">
    <inkscape:grid
       type="xygrid"
       id="grid827"
       spacingx="4"
       spacingy="4" />
  </sodipodi:namedview>
  <defs
     id="defs4">
    <style
       id="style2">.a{fill:none;stroke:#b1b5bd;stroke-linecap:round;stroke-linejoin:round;isolation:isolate;opacity:0.63;}</style>
  </defs>
  <circle
     class="a"
     cx="96"
     cy="96"
     r="88"
     id="circle8"
     style="fill:#728dbe;stroke:none;opacity:1" />
  <circle
     class="a"
     cx="96"
     cy="96"
     r="43.978554"
     id="circle10"
     style="opacity:1;isolation:isolate;fill:#96dfd3;stroke:none;stroke-width:1.20489192;stroke-linecap:round;stroke-linejoin:round" />
  <path
     style="color:#000000;font-style:normal;font-variant:normal;font-weight:normal;font-stretch:normal;font-size:medium;line-height:normal;font-family:sans-serif;font-variant-ligatures:normal;font-variant-position:normal;font-variant-caps:normal;font-variant-numeric:normal;font-variant-alternates:normal;font-feature-settings:normal;text-indent:0;text-align:start;text-decoration:none;text-decoration-line:none;text-decoration-style:solid;text-decoration-color:#000000;letter-spacing:normal;word-spacing:normal;text-transform:none;writing-mode:lr-tb;direction:ltr;text-orientation:mixed;dominant-baseline:auto;baseline-shift:baseline;text-anchor:start;white-space:normal;shape-padding:0;clip-rule:nonzero;display:inline;overflow:visible;visibility:visible;opacity:1;isolation:auto;mix-blend-mode:normal;color-interpolation:sRGB;color-interpolation-filters:linearRGB;solid-color:#000000;solid-opacity:1;vector-effect:none;fill:#f9de81;fill-opacity:1;fill-rule:nonzero;stroke:none;stroke-width:12;stroke-linecap:round;stroke-linejoin:round;stroke-miterlimit:4;stroke-dasharray:none;stroke-dashoffset:0;stroke-opacity:1;color-rendering:auto;image-rendering:auto;shape-rendering:auto;text-rendering:auto;enable-background:accumulate"
     d="M 96 59.5 A 36.5 36.5 0 0 0 66.121094 75.066406 L 93.066406 91.097656 C 94.957274 92.222751 97.312257 92.222751 99.203125 91.097656 L 125.93555 75.191406 A 36.5 36.5 0 0 0 96 59.5 z M 64.109375 78.271484 A 36.5 36.5 0 0 0 59.5 96 A 36.5 36.5 0 0 0 64.083984 113.62305 L 85.037109 101.15625 C 88.935179 98.835227 88.946951 93.194689 85.058594 90.857422 L 64.109375 78.271484 z M 127.86133 78.279297 L 106.92383 90.857422 C 103.03548 93.194687 103.04722 98.835225 106.94531 101.15625 L 127.93945 113.64844 A 36.5 36.5 0 0 0 132.5 96 A 36.5 36.5 0 0 0 127.86133 78.279297 z M 96.380859 100.32422 C 95.209572 100.27612 94.049849 100.57217 93.044922 101.17578 L 66.351562 117.21094 A 36.5 36.5 0 0 0 96 132.5 A 36.5 36.5 0 0 0 125.74609 117.10742 L 99.224609 101.17578 C 98.362972 100.65824 97.385135 100.36542 96.380859 100.32422 z "
     id="path829" />
  <path
     style="color:#000000;font-style:normal;font-variant:normal;font-weight:normal;font-stretch:normal;font-size:medium;line-height:normal;font-family:sans-serif;font-variant-ligatures:normal;font-variant-position:normal;font-variant-caps:normal;font-variant-numeric:normal;font-variant-alternates:normal;font-feature-settings:normal;text-indent:0;text-align:start;text-decoration:none;text-decoration-line:none;text-decoration-style:solid;text-decoration-color:#000000;letter-spacing:normal;word-spacing:normal;text-transform:none;writing-mode:lr-tb;direction:ltr;text-orientation:mixed;dominant-baseline:auto;baseline-shift:baseline;text-anchor:start;white-space:normal;shape-padding:0;clip-rule:nonzero;display:inline;overflow:visible;visibility:visible;opacity:1;isolation:auto;mix-blend-mode:normal;color-interpolation:sRGB;color-interpolation-filters:linearRGB;solid-color:#000000;solid-opacity:1;vector-effect:none;fill:#c39a54;fill-opacity:1;fill-rule:nonzero;stroke:none;stroke-width:12;stroke-linecap:round;stroke-linejoin:round;stroke-miterlimit:4;stroke-dasharray:none;stroke-dashoffset:0;stroke-opacity:1;color-rendering:auto;image-rendering:auto;shape-rendering:auto;text-rendering:auto;enable-background:accumulate"
     d="M 68.595703 71.935547 A 36.5 36.5 0 0 0 66.21875 74.939453 L 85.058594 86.255859 C 85.313742 86.409227 85.549919 86.57787 85.771484 86.757812 L 93.066406 91.097656 C 94.957274 92.222751 97.312257 92.222751 99.203125 91.097656 L 105.68164 87.242188 C 106.03886 86.872736 106.45158 86.539725 106.92383 86.255859 L 125.75781 74.941406 A 36.5 36.5 0 0 0 123.48438 72.048828 L 99.203125 86.496094 C 97.312257 87.621189 94.957274 87.621189 93.066406 86.496094 L 68.595703 71.935547 z M 87.509766 93.699219 C 87.043577 94.832968 86.222699 95.848752 85.037109 96.554688 L 62.349609 110.05273 A 36.5 36.5 0 0 0 64.083984 113.62305 L 85.037109 101.15625 C 87.757783 99.53628 88.580138 96.301567 87.509766 93.699219 z M 104.47266 93.699219 C 103.40229 96.301567 104.22462 99.536278 106.94531 101.15625 L 127.93945 113.64844 A 36.5 36.5 0 0 0 129.66992 110.07617 L 106.94531 96.554688 C 105.75972 95.84875 104.93885 94.832968 104.47266 93.699219 z "
     id="path829-7" />
</svg>

<svg xmlns="http://www.w3.org/2000/svg" id="svg16" version="1.1" viewBox="0 0 192 192"><defs id="defs4"><style id="style2">.a{fill:none;stroke:#b1b5bd;stroke-linecap:round;stroke-linejoin:round;isolation:isolate;opacity:.63}</style></defs><circle id="circle8" cx="96" cy="96" r="88" class="a" style="fill:#728dbe;stroke:none;opacity:1"/><circle id="circle10" cx="96" cy="96" r="43.979" class="a" style="opacity:1;isolation:isolate;fill:#96dfd3;stroke:none;stroke-width:1.20489192;stroke-linecap:round;stroke-linejoin:round"/><path id="path829" d="M96 59.5a36.5 36.5 0 0 0-29.879 15.566l26.945 16.032a6 6 0 0 0 6.137 0l26.733-15.907A36.5 36.5 0 0 0 96 59.5zM64.11 78.271A36.5 36.5 0 0 0 59.5 96a36.5 36.5 0 0 0 4.584 17.623l20.953-12.467c3.898-2.32 3.91-7.961.022-10.299l-20.95-12.586zm63.751.008-20.937 12.578c-3.889 2.338-3.877 7.978.021 10.3l20.994 12.491A36.5 36.5 0 0 0 132.5 96a36.5 36.5 0 0 0-4.639-17.72zm-31.48 22.045a6 6 0 0 0-3.336.852L66.352 117.21A36.5 36.5 0 0 0 96 132.5a36.5 36.5 0 0 0 29.746-15.393l-26.521-15.931a6 6 0 0 0-2.844-.852z" style="color:#000;font-style:normal;font-variant:normal;font-weight:400;font-stretch:normal;font-size:medium;line-height:normal;font-family:sans-serif;font-variant-ligatures:normal;font-variant-position:normal;font-variant-caps:normal;font-variant-numeric:normal;font-variant-alternates:normal;font-feature-settings:normal;text-indent:0;text-align:start;text-decoration:none;text-decoration-line:none;text-decoration-style:solid;text-decoration-color:#000;letter-spacing:normal;word-spacing:normal;text-transform:none;writing-mode:lr-tb;direction:ltr;text-orientation:mixed;dominant-baseline:auto;baseline-shift:baseline;text-anchor:start;white-space:normal;shape-padding:0;clip-rule:nonzero;display:inline;overflow:visible;visibility:visible;opacity:1;isolation:auto;mix-blend-mode:normal;color-interpolation:sRGB;color-interpolation-filters:linearRGB;solid-color:#000;solid-opacity:1;vector-effect:none;fill:#f9de81;fill-opacity:1;fill-rule:nonzero;stroke:none;stroke-width:12;stroke-linecap:round;stroke-linejoin:round;stroke-miterlimit:4;stroke-dasharray:none;stroke-dashoffset:0;stroke-opacity:1;color-rendering:auto;image-rendering:auto;shape-rendering:auto;text-rendering:auto;enable-background:accumulate"/><path id="path829-7" d="M68.596 71.936a36.5 36.5 0 0 0-2.377 3.003l18.84 11.317c.255.153.49.322.712.502l7.295 4.34a6 6 0 0 0 6.137 0l6.479-3.856c.357-.37.77-.702 1.242-.986l18.834-11.315a36.5 36.5 0 0 0-2.274-2.892l-24.28 14.447a6 6 0 0 1-6.138 0l-24.47-14.56zM87.51 93.699a5.922 5.922 0 0 1-2.473 2.856L62.35 110.053a36.5 36.5 0 0 0 1.734 3.57l20.953-12.467c2.72-1.62 3.543-4.854 2.473-7.457zm16.963 0c-1.07 2.603-.248 5.837 2.472 7.457l20.994 12.492a36.5 36.5 0 0 0 1.73-3.572l-22.724-13.521a5.922 5.922 0 0 1-2.472-2.856z" style="color:#000;font-style:normal;font-variant:normal;font-weight:400;font-stretch:normal;font-size:medium;line-height:normal;font-family:sans-serif;font-variant-ligatures:normal;font-variant-position:normal;font-variant-caps:normal;font-variant-numeric:normal;font-variant-alternates:normal;font-feature-settings:normal;text-indent:0;text-align:start;text-decoration:none;text-decoration-line:none;text-decoration-style:solid;text-decoration-color:#000;letter-spacing:normal;word-spacing:normal;text-transform:none;writing-mode:lr-tb;direction:ltr;text-orientation:mixed;dominant-baseline:auto;baseline-shift:baseline;text-anchor:start;white-space:normal;shape-padding:0;clip-rule:nonzero;display:inline;overflow:visible;visibility:visible;opacity:1;isolation:auto;mix-blend-mode:normal;color-interpolation:sRGB;color-interpolation-filters:linearRGB;solid-color:#000;solid-opacity:1;vector-effect:none;fill:#c39a54;fill-opacity:1;fill-rule:nonzero;stroke:none;stroke-width:12;stroke-linecap:round;stroke-linejoin:round;stroke-miterlimit:4;stroke-dasharray:none;stroke-dashoffset:0;stroke-opacity:1;color-rendering:auto;image-rendering:auto;shape-rendering:auto;text-rendering:auto;enable-background:accumulate"/></svg>
